X:1988
T:Sweet Journeys
M:3/4
L:1/4
C:George Wilson, as played by Jerry Holland
S:Jerry Holland
N:Music written out by Burt Feintuch, revised by Peter Yarensky
R:waltz
Z:<http://tunes.nhcountrydance.com>.
K:A
|:((3E/4F/4E/4)  D/2B,/2 | "A" A,>C E | (A<c) ((3B/2c/2B/2) | "D" A>FD | "A" E>(F E/2D/2) |
C>E A | (c<e) (e/2<f/2)| "Bm" e>c A | "E7" B>A B/2c/2 |
"D" d>e f/2d/2 | "A" e.cA | "D" F>E D | "E7" E>F E/2D/2 |
"A" (C<A) (A/2c/2) | "E7" B>A G | "A" A3 |1 A :|2 A2 |]
|: e | "D" f>e d | (f<a) ((3f/2a/2f/2) | "A" e>c A| AE2 |
"D" (F<d) F | "A" (E<c) (c/2e/2) | "Bm" e>d c | "E7" B>(A B/2c/2) |
"D" d>e f | "E7" gab | "A" ((3a/2b/2a/2) e c | "D" f>g a |
"A" e<c A | "D" F<d "E7" G | "A" A3 |1 A2 :|2 A> |]

